icons/svg/shields_big/h_topo_tower_shield.svg

<?xml version="1.0" encoding="UTF-8" standalone="no"?>
<!-- Created with Inkscape (http://www.inkscape.org/) -->

<svg
   xmlns:dc="http://purl.org/dc/elements/1.1/"
   xmlns:cc="http://creativecommons.org/ns#"
   xmlns:rdf="http://www.w3.org/1999/02/22-rdf-syntax-ns#"
   xmlns:svg="http://www.w3.org/2000/svg"
   xmlns="http://www.w3.org/2000/svg"
   xmlns:sodipodi="http://sodipodi.sourceforge.net/DTD/sodipodi-0.dtd"
   xmlns:inkscape="http://www.inkscape.org/namespaces/inkscape"
   version="1.0"
   width="32"
   height="32"
   id="svg2"
   sodipodi:version="0.32"
   inkscape:version="0.91 r"
   sodipodi:docname="h_topo_tower_shield.svg"
   inkscape:output_extension="org.inkscape.output.svg.inkscape">
  <metadata
     id="metadata10">
    <rdf:RDF>
      <cc:Work
         rdf:about="">
        <dc:format>image/svg+xml</dc:format>
        <dc:type
           rdf:resource="http://purl.org/dc/dcmitype/StillImage" />
        <cc:license
           rdf:resource="http://web.resource.org/cc/PublicDomain" />
        <dc:language>en</dc:language>
        <dc:title></dc:title>
      </cc:Work>
    </rdf:RDF>
  </metadata>
  <sodipodi:namedview
     inkscape:window-height="1006"
     inkscape:window-width="1920"
     inkscape:pageshadow="2"
     inkscape:pageopacity="0.0"
     guidetolerance="10.0"
     gridtolerance="10.0"
     objecttolerance="10.0"
     borderopacity="1.0"
     bordercolor="#666666"
     pagecolor="#ffffff"
     id="base"
     showgrid="false"
     inkscape:zoom="22.627417"
     inkscape:cx="15.709826"
     inkscape:cy="18.250634"
     inkscape:window-x="1920"
     inkscape:window-y="0"
     inkscape:current-layer="svg2"
     inkscape:window-maximized="1"
     showguides="false"
     inkscape:guide-bbox="true" />
  <defs
     id="defs4">
    <inkscape:perspective
       sodipodi:type="inkscape:persp3d"
       inkscape:vp_x="0 : 290 : 1"
       inkscape:vp_y="0 : 1000 : 0"
       inkscape:vp_z="580 : 290 : 1"
       inkscape:persp3d-origin="290 : 193.33333 : 1"
       id="perspective12" />
    <style
       type="text/css"
       id="style6">
   
    .fil0 {fill:#EF7900}
   
  </style>
    <inkscape:perspective
       id="perspective6807"
       inkscape:persp3d-origin="29.116032 : 19.410688 : 1"
       inkscape:vp_z="58.232063 : 29.116032 : 1"
       inkscape:vp_y="0 : 1000 : 0"
       inkscape:vp_x="0 : 29.116032 : 1"
       sodipodi:type="inkscape:persp3d" />
    <inkscape:perspective
       id="perspective6954"
       inkscape:persp3d-origin="290 : 193.33333 : 1"
       inkscape:vp_z="580 : 290 : 1"
       inkscape:vp_y="0 : 1000 : 0"
       inkscape:vp_x="0 : 290 : 1"
       sodipodi:type="inkscape:persp3d" />
    <inkscape:perspective
       id="perspective2541"
       inkscape:persp3d-origin="240 : 160 : 1"
       inkscape:vp_z="480 : 240 : 1"
       inkscape:vp_y="0 : 1000 : 0"
       inkscape:vp_x="0 : 240 : 1"
       sodipodi:type="inkscape:persp3d" />
    <inkscape:perspective
       id="perspective2750"
       inkscape:persp3d-origin="215 : 143.33333 : 1"
       inkscape:vp_z="430 : 215 : 1"
       inkscape:vp_y="0 : 1000 : 0"
       inkscape:vp_x="0 : 215 : 1"
       sodipodi:type="inkscape:persp3d" />
    <inkscape:perspective
       id="perspective3730"
       inkscape:persp3d-origin="88.929146 : 101.19778 : 1"
       inkscape:vp_z="177.85829 : 151.79668 : 1"
       inkscape:vp_y="0 : 1000 : 0"
       inkscape:vp_x="0 : 151.79668 : 1"
       sodipodi:type="inkscape:persp3d" />
    <marker
       inkscape:stockid="TriangleInM"
       orient="auto"
       refY="0"
       refX="0"
       id="TriangleInM-3"
       style="overflow:visible"
       inkscape:isstock="true">
      <path
         inkscape:connector-curvature="0"
         id="path4303-6"
         d="m 5.77,0 -8.65,5 0,-10 8.65,5 z"
         style="fill:#ffffff;fill-opacity:1;fill-rule:evenodd;stroke:#ffffff;stroke-width:1pt;stroke-opacity:1"
         transform="scale(-0.4,-0.4)" />
    </marker>
    <marker
       inkscape:stockid="TriangleOutM"
       orient="auto"
       refY="0"
       refX="0"
       id="TriangleOutM-7"
       style="overflow:visible"
       inkscape:isstock="true">
      <path
         inkscape:connector-curvature="0"
         id="path4312-5"
         d="m 5.77,0 -8.65,5 0,-10 8.65,5 z"
         style="fill:#ffffff;fill-opacity:1;fill-rule:evenodd;stroke:#ffffff;stroke-width:1pt;stroke-opacity:1"
         transform="scale(0.4,0.4)" />
    </marker>
    <marker
       inkscape:stockid="TriangleInM"
       orient="auto"
       refY="0"
       refX="0"
       id="TriangleInM"
       style="overflow:visible"
       inkscape:isstock="true">
      <path
         inkscape:connector-curvature="0"
         id="path4303"
         d="m 5.77,0 -8.65,5 0,-10 8.65,5 z"
         style="fill:#ffffff;fill-opacity:1;fill-rule:evenodd;stroke:#ffffff;stroke-width:1pt;stroke-opacity:1"
         transform="scale(-0.4,-0.4)" />
    </marker>
    <marker
       inkscape:stockid="TriangleOutM"
       orient="auto"
       refY="0"
       refX="0"
       id="TriangleOutM"
       style="overflow:visible"
       inkscape:isstock="true">
      <path
         inkscape:connector-curvature="0"
         id="path4312"
         d="m 5.77,0 -8.65,5 0,-10 8.65,5 z"
         style="fill:#ffffff;fill-opacity:1;fill-rule:evenodd;stroke:#ffffff;stroke-width:1pt;stroke-opacity:1"
         transform="scale(0.4,0.4)" />
    </marker>
    <marker
       inkscape:stockid="TriangleInM"
       orient="auto"
       refY="0"
       refX="0"
       id="TriangleInM-3-3"
       style="overflow:visible"
       inkscape:isstock="true">
      <path
         inkscape:connector-curvature="0"
         id="path4303-6-6"
         d="m 5.77,0 -8.65,5 0,-10 8.65,5 z"
         style="fill:#ffffff;fill-opacity:1;fill-rule:evenodd;stroke:#ffffff;stroke-width:1pt;stroke-opacity:1"
         transform="scale(-0.4,-0.4)" />
    </marker>
    <marker
       inkscape:stockid="TriangleOutM"
       orient="auto"
       refY="0"
       refX="0"
       id="TriangleOutM-7-7"
       style="overflow:visible"
       inkscape:isstock="true">
      <path
         inkscape:connector-curvature="0"
         id="path4312-5-5"
         d="m 5.77,0 -8.65,5 0,-10 8.65,5 z"
         style="fill:#ffffff;fill-opacity:1;fill-rule:evenodd;stroke:#ffffff;stroke-width:1pt;stroke-opacity:1"
         transform="scale(0.4,0.4)" />
    </marker>
    <marker
       inkscape:stockid="TriangleInM"
       orient="auto"
       refY="0"
       refX="0"
       id="TriangleInM-3-5"
       style="overflow:visible"
       inkscape:isstock="true">
      <path
         inkscape:connector-curvature="0"
         id="path4303-6-62"
         d="m 5.77,0 -8.65,5 0,-10 8.65,5 z"
         style="fill:#ffffff;fill-opacity:1;fill-rule:evenodd;stroke:#ffffff;stroke-width:1pt;stroke-opacity:1"
         transform="scale(-0.4,-0.4)" />
    </marker>
    <marker
       inkscape:stockid="TriangleOutM"
       orient="auto"
       refY="0"
       refX="0"
       id="TriangleOutM-7-9"
       style="overflow:visible"
       inkscape:isstock="true">
      <path
         inkscape:connector-curvature="0"
         id="path4312-5-1"
         d="m 5.77,0 -8.65,5 0,-10 8.65,5 z"
         style="fill:#ffffff;fill-opacity:1;fill-rule:evenodd;stroke:#ffffff;stroke-width:1pt;stroke-opacity:1"
         transform="scale(0.4,0.4)" />
    </marker>
    <marker
       inkscape:stockid="TriangleInM"
       orient="auto"
       refY="0"
       refX="0"
       id="TriangleInM-3-0"
       style="overflow:visible"
       inkscape:isstock="true">
      <path
         inkscape:connector-curvature="0"
         id="path4303-6-9"
         d="m 5.77,0 -8.65,5 0,-10 8.65,5 z"
         style="fill:#ffffff;fill-opacity:1;fill-rule:evenodd;stroke:#ffffff;stroke-width:1pt;stroke-opacity:1"
         transform="scale(-0.4,-0.4)" />
    </marker>
    <marker
       inkscape:stockid="TriangleOutM"
       orient="auto"
       refY="0"
       refX="0"
       id="TriangleOutM-7-3"
       style="overflow:visible"
       inkscape:isstock="true">
      <path
         inkscape:connector-curvature="0"
         id="path4312-5-6"
         d="m 5.77,0 -8.65,5 0,-10 8.65,5 z"
         style="fill:#ffffff;fill-opacity:1;fill-rule:evenodd;stroke:#ffffff;stroke-width:1pt;stroke-opacity:1"
         transform="scale(0.4,0.4)" />
    </marker>
    <marker
       inkscape:stockid="TriangleInM"
       orient="auto"
       refY="0"
       refX="0"
       id="TriangleInM-0"
       style="overflow:visible"
       inkscape:isstock="true">
      <path
         inkscape:connector-curvature="0"
         id="path4303-62"
         d="m 5.77,0 -8.65,5 0,-10 8.65,5 z"
         style="fill:#ffffff;fill-opacity:1;fill-rule:evenodd;stroke:#ffffff;stroke-width:1pt;stroke-opacity:1"
         transform="scale(-0.4,-0.4)" />
    </marker>
    <marker
       inkscape:stockid="TriangleOutM"
       orient="auto"
       refY="0"
       refX="0"
       id="TriangleOutM-6"
       style="overflow:visible"
       inkscape:isstock="true">
      <path
         inkscape:connector-curvature="0"
         id="path4312-1"
         d="m 5.77,0 -8.65,5 0,-10 8.65,5 z"
         style="fill:#ffffff;fill-opacity:1;fill-rule:evenodd;stroke:#ffffff;stroke-width:1pt;stroke-opacity:1"
         transform="scale(0.4,0.4)" />
    </marker>
    <marker
       inkscape:stockid="TriangleInM"
       orient="auto"
       refY="0"
       refX="0"
       id="TriangleInM-3-0-8"
       style="overflow:visible"
       inkscape:isstock="true">
      <path
         inkscape:connector-curvature="0"
         id="path4303-6-9-7"
         d="m 5.77,0 -8.65,5 0,-10 8.65,5 z"
         style="fill:#ffffff;fill-opacity:1;fill-rule:evenodd;stroke:#ffffff;stroke-width:1pt;stroke-opacity:1"
         transform="scale(-0.4,-0.4)" />
    </marker>
    <marker
       inkscape:stockid="TriangleOutM"
       orient="auto"
       refY="0"
       refX="0"
       id="TriangleOutM-7-3-9"
       style="overflow:visible"
       inkscape:isstock="true">
      <path
         inkscape:connector-curvature="0"
         id="path4312-5-6-2"
         d="m 5.77,0 -8.65,5 0,-10 8.65,5 z"
         style="fill:#ffffff;fill-opacity:1;fill-rule:evenodd;stroke:#ffffff;stroke-width:1pt;stroke-opacity:1"
         transform="scale(0.4,0.4)" />
    </marker>
  </defs>
  <path
     sodipodi:type="inkscape:offset"
     inkscape:radius="0.91706067"
     inkscape:original="M 15.960938 5.5332031 A 0.55191921 0.55191921 0 0 0 15.457031 5.9570312 L 13.251953 15.335938 C 13.241013 15.380638 13.231246 15.425158 13.222656 15.470703 A 0.55191921 0.55191921 0 0 0 13.216797 15.527344 C 13.193877 15.665519 13.171875 15.804623 13.171875 15.949219 C 13.171875 17.454132 14.463084 18.654297 16.003906 18.654297 C 17.544728 18.654297 18.835938 17.454132 18.835938 15.949219 C 18.835938 15.712664 18.794138 15.487549 18.734375 15.269531 L 16.53125 5.9570312 A 0.55191921 0.55191921 0 0 0 15.960938 5.5332031 z M 15.996094 8.4882812 L 17.181641 13.5 C 16.82 13.339972 16.423652 13.244141 16.003906 13.244141 C 15.580431 13.244141 15.180548 13.341181 14.816406 13.503906 L 15.996094 8.4882812 z "
     style="color:#000000;font-style:normal;font-variant:normal;font-weight:normal;font-stretch:normal;font-size:medium;line-height:normal;font-family:sans-serif;text-indent:0;text-align:start;text-decoration:none;text-decoration-line:none;text-decoration-style:solid;text-decoration-color:#000000;letter-spacing:normal;word-spacing:normal;text-transform:none;direction:ltr;block-progression:tb;writing-mode:lr-tb;baseline-shift:baseline;text-anchor:start;white-space:normal;clip-rule:nonzero;display:inline;overflow:visible;visibility:visible;opacity:1;isolation:auto;mix-blend-mode:normal;color-interpolation:sRGB;color-interpolation-filters:linearRGB;solid-color:#000000;solid-opacity:1;fill:#ffffff;fill-opacity:1;fill-rule:nonzero;stroke:none;stroke-width:1.10372806;stroke-linecap:round;stroke-linejoin:miter;stroke-miterlimit:4;stroke-dasharray:none;stroke-dashoffset:0;stroke-opacity:1;marker:none;color-rendering:auto;image-rendering:auto;shape-rendering:auto;text-rendering:auto;enable-background:accumulate"
     id="path4632"
     d="m 15.90625,4.6171875 c -0.624792,0.037629 -1.197663,0.5198034 -1.341797,1.1289063 a 0.91715238,0.91715238 0 0 0 0,0.00195 l -2.205078,9.3789061 c -0.01354,0.05594 -0.02586,0.114171 -0.03711,0.173828 a 0.91715238,0.91715238 0 0 0 -0.0059,0.0293 c -0.0024,0.01553 -0.002,0.03127 -0.0039,0.04687 -0.02368,0.14273 -0.05859,0.334642 -0.05859,0.572266 0,2.029469 1.732972,3.623047 3.75,3.623047 2.017029,0 3.75,-1.593578 3.75,-3.623047 0,-0.344587 -0.06128,-0.653779 -0.134765,-0.921875 L 17.423828,5.7460938 C 17.266122,5.0796227 16.589884,4.5759592 15.90625,4.6171875 Z" />
</svg>

<svg width="32" height="32" viewBox="0 0 32 32" fill="none" xmlns="http://www.w3.org/2000/svg">
<path d="M15.9063 4.6172C15.2815 4.65483 14.7086 5.137 14.5645 5.7461C14.5645 5.74675 14.5645 5.7474 14.5645 5.74805L12.3594 15.127C12.3458 15.1829 12.3335 15.2411 12.3223 15.3008C12.3201 15.3105 12.3182 15.3203 12.3164 15.3301C12.314 15.3456 12.3144 15.3614 12.3125 15.377C12.2888 15.5197 12.2539 15.7116 12.2539 15.9492C12.2539 17.9787 13.9868 19.5723 16.0039 19.5723C18.0209 19.5723 19.7539 17.9787 19.7539 15.9492C19.7539 15.6046 19.6926 15.2954 19.6191 15.0273L17.4238 5.7461C17.2661 5.07963 16.5899 4.57597 15.9063 4.6172Z" fill="white"/>
</svg>
